packages/rn-bitcoin-icons/svg/filled/bitcoin-circle.svg

<svg width="24" height="24" viewBox="0 0 24 24" fill="none" xmlns="http://www.w3.org/2000/svg">
<path d="M11.283 10.9666L11.2337 10.9518L11.7615 8.83476C11.8179 8.84934 11.8899 8.86549 11.9733 8.88418C12.6792 9.04243 14.1984 9.38303 13.9233 10.4981C13.6279 11.6712 11.8744 11.1443 11.283 10.9666Z" fill="black"/>
<path d="M10.3698 14.4046L10.4555 14.43C11.1841 14.6467 13.2516 15.2615 13.532 14.0972C13.8209 12.9759 11.9622 12.5393 11.1301 12.3437C11.0389 12.3223 10.96 12.3038 10.8977 12.2876L10.3698 14.4046Z" fill="black"/>
<path fill-rule="evenodd" clip-rule="evenodd" d="M12 21C16.9706 21 21 16.9706 21 12C21 7.02944 16.9706 3 12 3C7.02944 3 3 7.02944 3 12C3 16.9706 7.02944 21 12 21ZM15.8733 10.616C16.0794 9.31434 15.1803 8.63595 13.9322 8.17805L14.3709 6.40752L13.3814 6.16228L12.954 7.88758C12.8891 7.8711 12.8248 7.85446 12.7607 7.83788C12.5653 7.78735 12.3721 7.73737 12.1744 7.69437L12.6018 5.96907L11.5848 5.71702L11.1574 7.44232L9.13867 6.942L8.84704 8.12229C8.84704 8.12229 9.59555 8.28506 9.56828 8.30104C9.96893 8.40904 10.0369 8.69284 10.0149 8.90977L9.50633 10.9167L8.80751 13.7404C8.75259 13.8745 8.61852 14.066 8.34431 13.9993C8.35578 14.0121 7.61647 13.8088 7.61647 13.8088L7.12968 15.0542L9.08838 15.5876L8.652 17.349L9.63527 17.5927L10.0716 15.8313C10.2299 15.8767 10.3899 15.914 10.5447 15.95C10.6605 15.977 10.7736 16.0033 10.8807 16.0318L10.4444 17.7932L11.4294 18.0373L11.8658 16.276C13.5611 16.5994 14.8411 16.448 15.4129 14.7791C15.8726 13.4485 15.4427 12.6898 14.5497 12.19C15.2208 12.0266 15.7174 11.5635 15.8733 10.616Z" fill="black"/>
</svg>

<svg xmlns="http://www.w3.org/2000/svg" viewBox="0 0 24 24" fill="currentColor">
  <path d="M11.283 10.967l-.05-.015.528-2.117.212.05c.706.157 2.225.498 1.95 1.613-.295 1.173-2.049.646-2.64.469zM10.37 14.405l.086.025c.728.217 2.796.832 3.076-.333.289-1.121-1.57-1.558-2.402-1.753-.091-.022-.17-.04-.232-.056l-.528 2.117z"/>
  <path fill-rule="evenodd" d="M12 21a9 9 0 100-18 9 9 0 000 18zm3.873-10.384c.206-1.302-.693-1.98-1.94-2.438l.438-1.77-.99-.246-.427 1.726-.193-.05c-.196-.05-.389-.1-.587-.144l.428-1.725-1.017-.252-.428 1.725-2.018-.5-.292 1.18s.749.163.721.179c.4.108.469.392.447.609l-.509 2.007-.698 2.823c-.055.134-.19.326-.464.26.012.012-.728-.191-.728-.191l-.486 1.245 1.958.534-.436 1.761.983.244.437-1.762c.158.046.318.083.473.119.116.027.229.053.336.082l-.437 1.761.985.244.437-1.761c1.695.323 2.975.172 3.547-1.497.46-1.33.03-2.09-.863-2.589.67-.163 1.167-.627 1.323-1.574z" clip-rule="evenodd"/>
</svg>
